X:1
T: Dixie Land
C:
R:Reel
Q: 232
K:D
M:4/4
L:1/8
|:D2 D2 DE FG|A2 A2 A2 F2|B2 B2 B3A|B3A Bc de|
f6 dA|d6 FG|A6 GE|D4 z2 A2:|
|:d2 f2 e2 d2|B2 d4 B2|e6 B2|e6 A2|
d2 f2 e2 d2|B2 c2 d2 B2|A2 d2 d2 f2|1e4 z2 A2:|2c2 d6||
